X:1
T:[ID 7-133a]
T:[ID 7-133a]
T:Bezeichnung standardisiert: Andante Andante 2.
T:Urheber unbekannt Datum in der hier transkribierten schriftlichen Quelle: 1776 - 1791
C:Urheber unbekannt
C:Datum in der hier transkribierten schriftlichen Quelle: 1776 - 1791
L:1/8
M:2/4
K:G
V:1 treble 
V:1
 (G/4A/4B/4c/4) | dd de/c/ | d/4c/4B/4c/4B z d/B/ | A/G/F/G/ G>B |{c} BA z :: F/G/ | A>d d/c/c/A/ | %7
{c} BA z d | e/g/f/e/ dc/B/ |{c} BA z d | d/>c/ B/c/ d/g/f/e/ | e/d/ d2 A/c/ | %12
 (3B/c/d/ (3e/c/A/ GA | G (3c/d/e/ d (3f/g/a/ | g (3c/d/e/ d (3f/g/a/ | g(3f/g/a/ g(3f/g/a/ | %16
 gg/g/ g :| %17

